packages/kaspersky-hexa-ui-icons/src/iconsSVGs/24/DeviceFirewall.svg

<svg xmlns="http://www.w3.org/2000/svg" width="24" height="24" fill="none" viewBox="0 0 24 24"><path fill="#000" fill-rule="evenodd" d="M6 3C4.3431 3 3 4.3431 3 6v12c0 1.6569 1.3431 3 3 3h12c1.6569 0 3-1.3431 3-3V6c0-1.6569-1.3431-3-3-3zm4 2H6c-.5523 0-1 .4477-1 1v1h5zM5 9v2h7V9zm0 4v2h4v-2zm0 4v1c0 .5523.4477 1 1 1h7v-2zm10 2h3c.5523 0 1-.4477 1-1v-1h-4zm4-4v-2h-8v2zm0-4V9h-5v2zm0-4h-7V5h6c.5523 0 1 .4477 1 1z"/></svg>

<svg width="24" height="24" viewBox="0 0 24 24" fill="none" xmlns="http://www.w3.org/2000/svg">
<path fill-rule="evenodd" clip-rule="evenodd" d="M6 3C4.34315 3 3 4.34315 3 6V18C3 19.6569 4.34315 21 6 21H18C19.6569 21 21 19.6569 21 18V6C21 4.34315 19.6569 3 18 3H6ZM10 5H6C5.44772 5 5 5.44772 5 6V7H10V5ZM5 9V11H12V9H5ZM5 13V15H9V13H5ZM5 17V18C5 18.5523 5.44772 19 6 19H13V17H5ZM15 19H18C18.5523 19 19 18.5523 19 18V17H15V19ZM19 15V13H11V15H19ZM19 11V9H14V11H19ZM19 7H12V5H18C18.5523 5 19 5.44772 19 6V7Z" fill="black"/>
</svg>
